X: 39852
T: This Is How My Joyous Life's Begun
R: jig
M: 6/8
K: Gmajor
|DGG BGG|Bdg e2d|Bge dBG|AcB AGB|
DGG BAG|Bdg e2d|Bge dBG|ABd G3|
DGG BGG|Bdg e2d|Bge dBG|AGB AGD|
GGG BAG|Bdg e2d|Bge dBG|ABd G3||
ABd edB|dgb a2g|[M:3/28]a3-|[M:6/8] agb age|ded BdA|
GED G2G|Bgb aga|agb age|deg G3|
ABd edB|dgb age|ac'b age|[M:3/28]=f3-|[M:6/8]=fed BdA|
GGG E2D|Bgb abg|agb age|deg G3||

